X:5603
T:G\aa{}ngl\aa{}t fran Mockfj\"ard (Frisells g\aa{}ngl\aa{}t)
R:G\aa{}ngl\aa{}t
O:Sweden
M:4/4
C:Anders Frisell
A:Dalarna
K:D
F/G/ |\
A>B AG {FG}F>D FF/G/ | A/B/A/c/ Af f3e/f/ |\
gb/g/ fa/f/ ef/e/ df/d/ |1 \
ce/c/ E/^G/B/G/ A3F/G/ :|2 \
ca A/c/e/c/ d3 :: e/f/ |\
g>a g/f/g/a/ bg dB | A>g f/e/f/g/ a3 (3g/a/g/ |\
fe e/^d/e/f/ ge cA | df/d/ ce/c/ Bd/B/ Ae/f/ |\
g>a g/f/g/a/ bg dB | A>g f/e/f/g/ a3 (3g/a/g/ |\
fe e/^d/e/f/ ge cA | da A/c/e/c/ d3 :|**
